.svelte-kit/output/client/library/social-斗鱼.svg

<svg width="48" height="48" viewBox="0 0 48 48" fill="none" xmlns="http://www.w3.org/2000/svg">
<rect x="6" y="6" width="36" height="36" rx="8" fill="#FF7A00"/>
<ellipse cx="24.5" cy="20" rx="6.5" ry="7" fill="white"/>
<path d="M22 23.5V24.5L24.5 26.5L28.5 22L28 17.7812L26.5 19.5L24.5 21.5L22.5 23L22 23.5Z" fill="black"/>
<path d="M20.5 38.5C22 35 20 33 17 31L17.5 26H22C29 22 27.2156 16 27.2156 16C27.2156 16 24.5884 21.1838 21 22.5C16.6882 24.0815 11.2631 21.7894 11 21C10.5 19.5 19 7.5 29.5 11C34 9.5 38 12 39.5 14.5C39.8 15 36.5 15 35 17.5C37.5 25 33 32.5 25 34.5C24.5 37 20 39 20.5 38.5Z" fill="#EFF0F2" stroke="black"/>
<circle cx="20.5" cy="14.5" r="3.5" fill="black"/>
<circle cx="21" cy="15" r="3" fill="white"/>
<circle cx="21" cy="15" r="2" fill="#21000F"/>
<circle cx="22" cy="15" r="1" fill="white"/>
<circle cx="19.5" cy="14.5" r="0.5" fill="white"/>
<path d="M22.5 24.5C25.5 26.3 26.2555 30 24.2555 32C22.2555 34 18.5 33.5 16 31.5C13.5001 29.5 13.2502 26.8747 14.5 25C15.7498 23.1253 19.5 22.7 22.5 24.5Z" fill="#F6C106" stroke="black" stroke-width="0.8"/>
<path d="M21 23.5C18.5 25 16 28 16 31.5C15.4327 29.5145 15.819 27.5291 17 26C14.9882 25 10 23.5 9.28826 25C8.45581 26.7544 11.1341 28.6667 13.1629 30C10.7753 29 7.2351 27.0298 8.50001 24.5C9.5 22.5 15.3333 24.2931 17.5 25.4397C18.3754 24.5462 19.5577 23.8606 21 23.5Z" fill="black"/>
<path d="M24.5 21.5C24.5 21.5 25 23.7381 24.6803 24C24.3606 24.2619 22.5 23 22.5 23C22.5 23 22.8626 24.145 22.5 24C20 23 21.1 23 21.5 23C22 23 24.3798 21.4303 25 20.5C25.4447 19.8329 26.4141 18.5 26.6953 18C27 18.5 26.6953 20.2109 26.5 19.5C26.5 19.5 26.3437 22 26 22.1083C25.4111 22.2939 24.5 21.5 24.5 21.5Z" fill="white"/>
<path d="M20.5 28L25 25.9375L26.5 26.5L27 29.5L25.5 30L22.5 29.5L20.5 28Z" fill="#EFF0F2"/>
<path d="M19.5002 27.5C19.5 27 22.5002 28 26.0002 25C24.5002 27.5 21.0002 28 21.0002 28C24.5 30.5 28 29.5 30.5002 25.5C28.5 32.5 20 30.5 19.5002 27.5Z" fill="black"/>
</svg>

<svg width="48" height="48" fill="none" xmlns="http://www.w3.org/2000/svg"><rect x="6" y="6" width="36" height="36" rx="8" fill="#FF7A00"/><ellipse cx="24.5" cy="20" rx="6.5" ry="7" fill="#fff"/><path d="M22 23.5v1l2.5 2 4-4.5-.5-4.219-1.5 1.719-2 2-2 1.5-.5.5Z" fill="#000"/><path d="M20.5 38.5C22 35 20 33 17 31l.5-5H22c7-4 5.216-10 5.216-10S24.588 21.184 21 22.5c-4.312 1.581-9.737-.71-10-1.5-.5-1.5 8-13.5 18.5-10 4.5-1.5 8.5 1 10 3.5.3.5-3 .5-4.5 3 2.5 7.5-2 15-10 17-.5 2.5-5 4.5-4.5 4Z" fill="#EFF0F2" stroke="#000"/><circle cx="20.5" cy="14.5" r="3.5" fill="#000"/><circle cx="21" cy="15" r="3" fill="#fff"/><circle cx="21" cy="15" r="2" fill="#21000F"/><circle cx="22" cy="15" r="1" fill="#fff"/><circle cx="19.5" cy="14.5" r=".5" fill="#fff"/><path d="M22.5 24.5c3 1.8 3.756 5.5 1.756 7.5-2 2-5.756 1.5-8.256-.5s-2.75-4.625-1.5-6.5 5-2.3 8-.5Z" fill="#F6C106" stroke="#000" stroke-width=".8"/><path d="M21 23.5c-2.5 1.5-5 4.5-5 8-.567-1.985-.181-3.97 1-5.5-2.012-1-7-2.5-7.712-1-.832 1.754 1.846 3.667 3.875 5-2.388-1-5.928-2.97-4.663-5.5 1-2 6.833-.207 9 .94.875-.894 2.058-1.58 3.5-1.94Z" fill="#000"/><path d="M24.5 21.5s.5 2.238.18 2.5-2.18-1-2.18-1 .363 1.145 0 1c-2.5-1-1.4-1-1-1 .5 0 2.88-1.57 3.5-2.5.445-.667 1.414-2 1.695-2.5.305.5 0 2.21-.195 1.5 0 0-.156 2.5-.5 2.608-.589.186-1.5-.608-1.5-.608Z" fill="#fff"/><path d="m20.5 28 4.5-2.063 1.5.563.5 3-1.5.5-3-.5-2-1.5Z" fill="#EFF0F2"/><path d="M19.5 27.5c0-.5 3 .5 6.5-2.5-1.5 2.5-5 3-5 3 3.5 2.5 7 1.5 9.5-2.5-2 7-10.5 5-11 2Z" fill="#000"/></svg>
